build/img/icon-grid.svg

<svg width="24" height="24" viewBox="0 0 24 24" fill="none" xmlns="http://www.w3.org/2000/svg">
<path fill-rule="evenodd" clip-rule="evenodd" d="M4 3C3.44772 3 3 3.44772 3 4V10C3 10.5523 3.44772 11 4 11H10C10.5523 11 11 10.5523 11 10V4C11 3.44772 10.5523 3 10 3H4ZM5 9V5H9V9H5ZM14 3C13.4477 3 13 3.44772 13 4V10C13 10.5523 13.4477 11 14 11H20C20.5523 11 21 10.5523 21 10V4C21 3.44772 20.5523 3 20 3H14ZM15 9V5H19V9H15ZM13 14C13 13.4477 13.4477 13 14 13H20C20.5523 13 21 13.4477 21 14V20C21 20.5523 20.5523 21 20 21H14C13.4477 21 13 20.5523 13 20V14ZM15 15V19H19V15H15ZM4 13C3.44772 13 3 13.4477 3 14V20C3 20.5523 3.44772 21 4 21H10C10.5523 21 11 20.5523 11 20V14C11 13.4477 10.5523 13 10 13H4ZM5 19V15H9V19H5Z" fill="currentColor"/>
</svg>

<svg width="24" height="24" viewBox="0 0 24 24" fill="none" xmlns="http://www.w3.org/2000/svg"><path fill-rule="evenodd" clip-rule="evenodd" d="M4 3a1 1 0 00-1 1v6a1 1 0 001 1h6a1 1 0 001-1V4a1 1 0 00-1-1H4zm1 6V5h4v4H5zm9-6a1 1 0 00-1 1v6a1 1 0 001 1h6a1 1 0 001-1V4a1 1 0 00-1-1h-6zm1 6V5h4v4h-4zm-2 5a1 1 0 011-1h6a1 1 0 011 1v6a1 1 0 01-1 1h-6a1 1 0 01-1-1v-6zm2 1v4h4v-4h-4zM4 13a1 1 0 00-1 1v6a1 1 0 001 1h6a1 1 0 001-1v-6a1 1 0 00-1-1H4zm1 6v-4h4v4H5z" fill="currentColor"/></svg>
